X:1
T:Title
%%score { ( 1 3 4 ) | ( 2 5 6 ) }
L:1/8
Q:1/4=94
M:4/4
K:C
V:1 treble nm="Grand Piano"
V:3 treble 
V:4 treble 
V:2 bass 
V:5 bass 
V:6 bass 
V:1
 G>F E>F G<c B>c | A<c B>A z2 z G | G>F E>F G<c G>A | B<c B>A [B,G]4 | G>F E>F G<c B>c | %5
w: C.~Austin~Miles * * * * * * *|||||
 d<c B>c A2 cd | e e3 d<c d2 | [CEc]2 B2 A2 G2 | z [Ec]3 z4 | z4 G4 | %10
w: |||||
 [Ec] [Ec]3 [EA] [EG]2 [EG]/[EG]/ | [^FA]<[Fd] [Fd]>[Fe] d2 GG | [Ec]<[Ec] [Ec]>[EA] [EG]2 [CE]2 | %13
w: |||
 [EG]<[EA] [EG]>[DF] E G3 | [Ec]>[Ec] [Ec]>[EA] [EG]2 [CE]2 | z2 .[EG]2 z4 | A3 B c<d c<A | %17
w: ||||
 z4 z .c3 | e e3 dc d2 | [CEc]2 B2 A2 G2 | z [Ec]3 z4 | z4 G4 | [Ec] [Ec]3 [EA] [EG]2 [EG]/[EG]/ | %23
w: ||||||
 [^FA]<[Fd] [Fd]>[Fe] d2 GG | [Ec]<[Ec] [Ec]>[EA] [EG]2 [CE]2 | [EG]<[EA] [EG]>[DF] E G3 | %26
w: |||
 [Ec]>[Ec] [Ec]>[EA] [EG]2 [CE]2 | z2 .[EG]2 z4 | A3 B c<d c<A | z4 z .c3 | e e3 dc d2 | %31
w: |||||
 [Ec]6 z2 |] %32
w: |
V:2
 C,2 [E,G,C]2 E,2 [G,C]2 | [F,,F,]2 [F,A,C]2 C,2 [E,G,]2 | C,2 [E,G,C]2 E,2 [G,C]2 | %3
 D,2 [^F,CD]2 G,=F,E,D, | C,2 [E,G,C]2 E,2 [G,C]2 | [F,,F,]2 [F,A,C]2 [F,A,C]2 [^F,A,C_E]2 | %6
 [G,CG] [G,CG]3 [G,B,F]<[G,B,E] [G,B,F]2 | C,2 B,2 A,2 G,2 | [C,G,]G, z2 [C,G,] C,2 C, | %9
 C,2 ^C,2 D,2 G,,G,, | [C,G,] [C,G,]3 [C,C] [C,C]2 [C,C]/[C,C]/ | %11
 [D,C]<[D,A,] [D,C]>[D,C][K:treble] [G,B,F]2 [G,B,F][G,B,F] | %12
 [C,G,]<[C,G,] [C,G,]>[C,C] [C,C]2 [C,G,]2 | [G,,G,]<[G,,G,] [A,,G,]>[B,,G,] [G,C] [CE]3 | %14
 [C,G,]>[C,G,] [C,G,]>[C,C] [C,C]2 [C,G,]2 | [G,,G,]<[G,,G,] A,,B,, z[K:treble] [CE]3 | %16
 [F,F]3 [F,G,F] [F,A,F]<[F,A,F][K:bass] [F,A,F]<[F,CF] | z4[K:treble] z .A3[K:bass] | %18
 [G,CG] [G,CG]3 [G,B,F][G,E] [G,B,F]2 | C,2 B,2 A,2 G,2 | z G, z2 z4 | C,2 ^C,2 D,2 G,,G,, | %22
 [C,G,] [C,G,]3 [C,C] [C,C]2 [C,C]/[C,C]/ | %23
 [D,C]<[D,A,] [D,C]>[D,C][K:treble] [G,B,F]2 [G,B,F][G,B,F] | %24
 [C,G,]<[C,G,] [C,G,]>[C,C] [C,C]2 [C,G,]2 | z4 .[G,C]2 z2 | %26
 [C,G,]>[C,G,] [C,G,]>[C,C] [C,C]2 [C,G,]2 | [G,,G,]<[G,,G,] A,,B,, z[K:treble] [CE]3 | %28
 [F,F]3 [F,G,F] [F,A,F]<[F,A,F][K:bass] [F,A,F]<[F,CF] | z4[K:treble] z .A3[K:bass] | %30
 [G,CG] [G,CG]3 [G,B,F][G,E] [G,B,F]2 | [C,G,]6 z2 |] %32
V:3
 x8 | z4 G4 | x8 | x8 | x8 | x8 | x8 | x8 | .[Ec]2 C2 [EA] [CEG]2 [G,CE] | %9
 [G,EG]2 [G,_B,G]2 [G,=B,]2 z G | x8 | x8 | x8 | x8 | x8 | [EG]<[EA] G,-[G,DF] [G,CE] G3 | x8 | %17
 [EG] [EA]2 [EG] .A2 E[^Gd] | x8 | x8 | .[Ec]2 C2 [EA] [CEG]2 [G,CE] | %21
 [G,EG]2 [G,_B,G]2 [G,=B,]2 z G | x8 | x8 | x8 | x8 | x8 | [EG]<[EA] G,-[G,DF] [G,CE] G3 | x8 | %29
 [EG] [EA]2 [EG] .A2 E[^Gd] | x8 | x8 |] %32
V:4
 x8 | z4 z2 C2 | x8 | x8 | x8 | x8 | x8 | x8 | x8 | z4 z2 [G,F]2 | x8 | x8 | x8 | x8 | x8 | x8 | %16
 x8 | x8 | x8 | x8 | x8 | z4 z2 [G,F]2 | x8 | x8 | x8 | x8 | x8 | x8 | x8 | x8 | x8 | x8 |] %32
V:5
 x8 | x8 | x8 | x8 | x8 | x8 | x8 | x8 | z C,3 z4 | x8 | x8 | x4[K:treble] x4 | x8 | z4 C,4 | x8 | %15
 z4 C,4[K:treble] | x6[K:bass] x2 | z4[K:treble] [F,C]2[K:bass] z2 | x8 | x8 | %20
 [C,G,] C,3 [C,G,] C,2 C, | x8 | x8 | x4[K:treble] x4 | x8 | %25
 [G,,G,]<[G,,G,] [A,,G,]>[B,,G,] C,- [C,CE]3 | x8 | z4 C,4[K:treble] | x6[K:bass] x2 | %29
 z4[K:treble] [F,C]2[K:bass] z2 | x8 | x8 |] %32
V:6
 x8 | x8 | x8 | x8 | x8 | x8 | x8 | x8 | x8 | x8 | x8 | x4[K:treble] x4 | x8 | x8 | x8 | %15
 x5[K:treble] x3 | x6[K:bass] x2 | [C,C] [C,C]2 [C,C][K:treble] .F2[K:bass] F,[F,E] | x8 | x8 | %20
 x8 | x8 | x8 | x4[K:treble] x4 | x8 | x8 | x8 | x5[K:treble] x3 | x6[K:bass] x2 | %29
 [C,C] [C,C]2 [C,C][K:treble] .F2[K:bass] F,[F,E] | x8 | x8 |] %32

